Origami/16x16/apps/lightworks.svg

<svg width="16" height="16" version="1" xmlns="http://www.w3.org/2000/svg">
 <path d="m4.9 0v16h10.3c0.4432 0 0.8-0.3568 0.8-0.8v-1.982208l-0.553382-0.726363 0.157995-11.230144c0.006235-0.44315612-0.262767-0.48220216-0.602307-0.76705108l-0.589126-0.49423392zm-4.4070312 0.06093752c-0.04454932 0.01845688-0.0865446 0.04135084-0.12656252 0.06718748 0.03983524-0.02582924 0.08218012-0.04872868 0.12656252-0.06718748zm-0.13203124 0.07031248c-0.04175388 0.02742536-0.08063048 0.059193-0.11640628 0.09375 0.03578528-0.03481244 0.0745662-0.06614952 0.11640628-0.09375zm-0.11640628 0.09375c-0.0719586 0.0695072-0.13002668 0.15287852-0.171875 0.24531248 0.04154164-0.09250788 0.10030444-0.17568764 0.171875-0.24531248zm-0.171875 0.24531248c-0.04190388 0.0925568-0.06575924 0.19395948-0.06953124 0.30156252 0.00376624-0.10743808 0.0279896-0.2090546 0.06953124-0.30156252zm-0.06953124 0.30156252c-3.3512e-4 0.00955952-0.003125 0.01848088-0.003125 0.028125v0.0570312c0-0.03442 0.0028-0.0528275 0.003125-0.0851562z" style="fill:#4f4f4f"/>
 <path d="m0.8 0c-0.43355588 0-0.78181004 0.34212272-0.796875 0.771875-3.2688e-4 0.03232876-0.003125 0.05073636-0.003125 0.08515624v14.285938 0.057031c0 0.4432 0.3568 0.8 0.8 0.8h0.05625 4.14375v-2h3.4320312v-1h-3.4320312v-10h3.4320312v-1h-3.4320312v-2h-4.14375z" style="fill:#858585"/>
 <path d="m2 4v1h1v-1h-1z" style="fill:#ffffff"/>
 <path d="m2 1v1h1v-1h-1z" style="fill:#ffffff"/>
 <path d="m15.99979 8.3403568c-1.625621 0.873098-3.24126 1.4290316-4.638332 1.7856912-0.05791 0.01739-0.122686 0.03984-0.178569 0.0558-1.833607 0.52369-3.1283066 2.329211-3.128307 2.329211l-0.1015608 0.907354c0.1645376 0.07155 1.7054196 0.703137 3.7505088 0.0022 2.052002-0.703277 4.089981-3.4705106 4.29626-3.755531z" style="fill-rule:evenodd"/>
 <path d="m13.521586 10.854275-0.165734 1.098199-0.813047-0.574768-0.0385 1.276768-1.067508-0.753338-0.1529 1.417392-1.156235-0.99608-0.3309108 1.162373-0.9151664-1.060254-0.54631 0.906796-0.470418-1.085365-0.4034544 0.815837c0.050088 0.05346 0.101974 0.09928 0.1528996 0.149552 0.127144 0.09855 0.2762244 0.183591 0.2762244 0.183591s1.6520752 0.766277 3.8130076 0.02567c1.096185-0.375692 2.178817-1.336312 2.989916-2.196957-0.03118-0.01224-0.05762-0.02638-0.09152-0.03739z" style="fill-rule:evenodd"/>
 <ellipse cx="13.178" cy="5.92" rx="1.097" ry="1.102" style="opacity:.2"/>
 <ellipse cx="12.674" cy="5.414" rx=".27" ry=".271" style="opacity:.2"/>
 <path d="m16 7.9748532c-1.625621 0.873098-3.24147 1.4290312-4.638542 1.7856908-0.057913 0.017392-0.122686 0.039844-0.178569 0.0558028-1.833607 0.5236892-3.3279455 2.4090772-3.3279459 2.4090772l-0.1015608 0.907354c0.1645376 0.07155 1.7054196 0.703136 3.7505087 0.0022 2.052002-0.703237 4.28983-3.2099576 4.496109-3.494978z" style="fill-rule:evenodd;fill:#3f3f3f"/>
 <path d="m13.994236 8.4678855s-0.02221 0.00332-0.02232 0.00336c-3.971916 0.72835-6.7806068 1.042002-6.7806068 1.042002s-1.2761524 0.41143-2.4145892 0.169548l1.138378 1.6550765 0.3593704-1.029562 0.7912844 1.13782 0.5569124-1.174092 1.258354 1.246077 0.4497708-1.426321 1.186368 1.13782 0.575328-1.5529925 0.898983 0.9748755 0.556913-1.4263211 0.988826 0.6858176 0.431356-1.3660884z" style="fill-rule:evenodd;fill:#ffffff"/>
 <path d="m13.321947 10.568637-0.165734 1.0982-0.813047-0.574769-0.0385 1.276769-1.067508-0.753339-0.1529 1.417392-1.1562349-0.99608-0.3309108 1.162373-0.9151664-1.060254-0.54631 0.906796-0.470418-1.085365-0.4034544 0.815838c0.050088 0.05346-0.1286684 0.329921-0.077743 0.380193 0.127144 0.09855 0.045582 0.348337 0.045582 0.348337s2.3440028 0.865123 4.5049355 0.124514c1.096185-0.375692 2.378455-1.797597 3.189555-2.658243-0.03118-0.01224-0.487906-0.05933-0.521798-0.07034z" style="fill-rule:evenodd;fill:#ffffff"/>
 <path d="m2 8v1h1v-1h-1z" style="fill:#ffffff"/>
 <path d="m14.271094 0c-0.625881 0.20301124-8.0440321 2.5558004-10.694375 3.9734376-2.7683899 1.480778-2.6970155 2.021842-2.3734374 2.816406 0.3235783 0.7945636 1.186499 0.9366555 1.6898438 2.1285019 0.503342 1.1918445 4.2982813 1.08125 4.2982813 1.08125s4.3749796 0.4363245 8.8085936-1.9449079v-7.2546876c0-0.4432-0.3568-0.8-0.8-0.8zm1.728906 9.6s-3.660166 3.89781-7.0254201 4c-0.7157324 0.01231-1.3474452-0.213827-1.7132812-0.823438 0 0-0.287524 0.0449-0.233594 0.442188 0.2757332 1.408634 2.8505833 1.773466 3.4316703 1.78125 1.31302-0.00382 3.114715-0.510448 5.540625-1.626562z" style="fill:#e7464c"/>
 <circle cx="13.5" cy="5.5" r="1.5" style="fill:#3f3f3f"/>
 <circle cx="13" cy="5.5" r=".5" style="fill:#f8fcf9"/>
 <path d="m2 14v1h1v-1h-1z" style="fill:#ffffff"/>
 <path d="m2 11v1h1v-1h-1z" style="fill:#ffffff"/>
</svg>

<svg xmlns="http://www.w3.org/2000/svg" width="16" height="16" version="1">
 <path style="fill:#4f4f4f" d="m 4.9,0 0,16 10.3,0 C 15.6432,16 16,15.6432 16,15.2 L 16,13.217792 15.446618,12.491429 15.604613,1.261285 C 15.610848,0.81812888 15.341846,0.77908284 15.002306,0.49423392 L 14.41318,0 Z M 0.49296876,0.06093752 C 0.44841944,0.0793944 0.40642416,0.10228836 0.36640624,0.128125 0.40624148,0.10229576 0.44858636,0.07939632 0.49296876,0.06093752 Z M 0.36093752,0.13125 C 0.31918364,0.15867536 0.28030704,0.190443 0.24453124,0.225 0.28031652,0.19018756 0.31909744,0.15885048 0.36093752,0.13125 Z M 0.24453124,0.225 C 0.17257264,0.2945072 0.11450456,0.37787852 0.07265624,0.47031248 0.11419788,0.3778046 0.17296068,0.29462484 0.24453124,0.225 Z m -0.171875,0.24531248 C 0.03075236,0.56286928 0.006897,0.66427196 0.003125,0.771875 0.00689124,0.66443692 0.0311146,0.5628204 0.07265624,0.47031248 Z M 0.003125,0.771875 C 0.00278988,0.78143452 0,0.79035588 0,0.8 L 0,0.8570312 C 0,0.8226112 0.0028,0.8042037 0.003125,0.771875 Z"/>
 <path style="fill:#858585" d="M 0.8,0 C 0.36644412,0 0.01818996,0.34212272 0.003125,0.771875 0.00279812,0.80420376 0,0.82261136 0,0.85703124 L 0,15.142969 0,15.2 C 0,15.6432 0.3568,16 0.8,16 L 0.85625,16 5,16 l 0,-2 3.4320312,0 0,-1 L 5,13 5,3 l 3.4320312,0 0,-1 L 5,2 5,0 0.85625,0 Z"/>
 <path style="fill:#ffffff" d="M 2,4 2,5 3,5 3,4 2,4 Z"/>
 <path style="fill:#ffffff" d="M 2,1 2,2 3,2 3,1 2,1 Z"/>
 <path style="fill-rule:evenodd" d="m 15.99979,8.3403568 c -1.625621,0.873098 -3.24126,1.4290316 -4.638332,1.7856912 -0.05791,0.01739 -0.122686,0.03984 -0.178569,0.0558 -1.833607,0.52369 -3.1283066,2.329211 -3.128307,2.329211 l -0.1015608,0.907354 c 0.1645376,0.07155 1.7054196,0.703137 3.7505088,0.0022 2.052002,-0.703277 4.089981,-3.4705106 4.29626,-3.755531 z"/>
 <path style="fill-rule:evenodd" d="m 13.521586,10.854275 -0.165734,1.098199 -0.813047,-0.574768 -0.0385,1.276768 -1.067508,-0.753338 -0.1529,1.417392 -1.156235,-0.99608 -0.3309108,1.162373 -0.9151664,-1.060254 -0.54631,0.906796 -0.470418,-1.085365 -0.4034544,0.815837 c 0.050088,0.05346 0.101974,0.09928 0.1528996,0.149552 0.127144,0.09855 0.2762244,0.183591 0.2762244,0.183591 0,0 1.6520752,0.766277 3.8130076,0.02567 1.096185,-0.375692 2.178817,-1.336312 2.989916,-2.196957 -0.03118,-0.01224 -0.05762,-0.02638 -0.09152,-0.03739 z"/>
 <ellipse style="opacity:0.2" cx="13.178" cy="5.92" rx="1.097" ry="1.102"/>
 <ellipse style="opacity:0.2" cx="12.674" cy="5.414" rx=".27" ry=".271"/>
 <path style="fill:#3f3f3f;fill-rule:evenodd" d="M 16,7.9748532 C 14.374379,8.8479512 12.75853,9.4038844 11.361458,9.760544 11.303545,9.777936 11.238772,9.800388 11.182889,9.8163468 9.349282,10.340036 7.8549435,12.225424 7.8549431,12.225424 l -0.1015608,0.907354 c 0.1645376,0.07155 1.7054196,0.703136 3.7505087,0.0022 C 13.555893,12.431741 15.793721,9.9250204 16,9.64 Z"/>
 <path style="fill:#ffffff;fill-rule:evenodd" d="m 13.994236,8.4678855 c 0,0 -0.02221,0.00332 -0.02232,0.00336 C 10,9.1995955 7.1913092,9.5132475 7.1913092,9.5132475 c 0,0 -1.2761524,0.41143 -2.4145892,0.169548 l 1.138378,1.6550765 0.3593704,-1.029562 0.7912844,1.13782 0.5569124,-1.174092 1.258354,1.246077 0.4497708,-1.426321 1.186368,1.13782 0.575328,-1.5529925 0.898983,0.9748755 0.556913,-1.4263211 0.988826,0.6858176 0.431356,-1.3660884 z"/>
 <path style="fill:#ffffff;fill-rule:evenodd" d="m 13.321947,10.568637 -0.165734,1.0982 -0.813047,-0.574769 -0.0385,1.276769 -1.067508,-0.753339 -0.1529,1.417392 -1.1562349,-0.99608 -0.3309108,1.162373 -0.9151664,-1.060254 -0.54631,0.906796 -0.470418,-1.085365 -0.4034544,0.815838 c 0.050088,0.05346 -0.1286684,0.329921 -0.077743,0.380193 0.127144,0.09855 0.045582,0.348337 0.045582,0.348337 0,0 2.3440028,0.865123 4.5049355,0.124514 1.096185,-0.375692 2.378455,-1.797597 3.189555,-2.658243 -0.03118,-0.01224 -0.487906,-0.05933 -0.521798,-0.07034 z"/>
 <path style="fill:#ffffff" d="M 2,8 2,9 3,9 3,8 2,8 Z"/>
 <path style="fill:#e7464c" d="M 14.271094,0 C 13.645213,0.20301124 6.2270619,2.5558004 3.5767187,3.9734376 c -2.7683899,1.480778 -2.6970155,2.021842 -2.3734374,2.816406 0.3235783,0.7945636 1.186499,0.9366555 1.6898438,2.1285019 0.503342,1.1918445 4.2982813,1.08125 4.2982813,1.08125 0,0 4.3749796,0.4363245 8.8085936,-1.9449079 L 16,0.8 C 16,0.3568 15.6432,0 15.2,0 Z M 16,9.6 c 0,0 -3.660166,3.89781 -7.0254201,4 -0.7157324,0.01231 -1.3474452,-0.213827 -1.7132812,-0.823438 0,0 -0.287524,0.0449 -0.233594,0.442188 C 7.3034379,14.627384 9.878288,14.992216 10.459375,15 11.772395,14.99618 13.57409,14.489552 16,13.373438 Z"/>
 <circle style="fill:#3f3f3f" cx="13.5" cy="5.5" r="1.5"/>
 <circle style="fill:#f8fcf9" cx="13" cy="5.5" r=".5"/>
 <path style="fill:#ffffff" d="m 2,14 0,1 1,0 0,-1 -1,0 z"/>
 <path style="fill:#ffffff" d="m 2,11 0,1 1,0 0,-1 -1,0 z"/>
</svg>
